meta/logo-dark.svg

<svg xmlns="http://www.w3.org/2000/svg" viewBox="0 0 1580 378"><path d="M166.015 253.012a10 10 0 0 0-3.161-7.279l-52.9-49.588c-4.029-3.776-10.357-3.571-14.135.457-3.777 4.029-3.572 10.357.457 14.135l45.143 42.316-44.814 42.292c-4.017 3.79-4.2 10.119-.41 14.136a9.97 9.97 0 0 0 7.275 3.137 9.96 9.96 0 0 0 6.861-2.728l52.547-49.589a10 10 0 0 0 3.137-7.289M204.824 294.382h-39.412c-5.523 0-10 4.478-10 10s4.477 10 10 10h39.412c5.523 0 10-4.478 10-10s-4.477-10-10-10" style="fill:#e8eaed"/><path d="M322.589 94.846c-5.523 0-10 4.477-10 10v133.412c0 8.808-5.812 16.191-13.588 18.132V123.175c0-21.31-17.125-38.647-38.175-38.647H120.648v-1.823c0-10.282 7.911-18.647 17.635-18.647h124.424c5.523 0 10-4.477 10-10s-4.477-10-10-10H138.283c-20.752 0-37.635 17.337-37.635 38.647v1.835c-20.844.244-37.729 17.477-37.729 38.636v.894c-20.054 1.392-35.947 18.141-35.947 38.542v166.441c0 21.311 17.337 38.647 38.647 38.647H228.03c21.31 0 38.647-17.337 38.647-38.647v-12.13c18.282-2.859 32.324-18.896 32.324-38.193v-2.05c18.856-2.08 33.588-18.514 33.588-38.421V104.846c0-5.523-4.477-10-10-10m-75.912 234.206c0 10.282-8.365 18.647-18.647 18.647H65.619c-10.282 0-18.647-8.365-18.647-18.647V162.611c0-10.282 8.365-18.647 18.647-18.647H228.03c10.282 0 18.647 8.365 18.647 18.647zm32.324-50.323c0 8.18-5.168 15.131-12.324 17.637V162.611c0-21.31-17.337-38.647-38.647-38.647H82.919v-.789c0-10.282 8.153-18.647 18.174-18.647h159.733c10.021 0 18.175 8.365 18.175 18.647z" style="fill:#e8eaed"/><path d="m341.34 36.46 9.513 3.129c6.9 2.27 6.9 12.031 0 14.301l-9.513 3.129a13.3 13.3 0 0 0-8.471 8.471l-3.65 11.095c-2.105 6.398-11.155 6.398-13.26 0l-3.65-11.095a13.3 13.3 0 0 0-8.471-8.471l-9.513-3.129c-6.9-2.27-6.9-12.031 0-14.301l9.513-3.129a13.3 13.3 0 0 0 8.471-8.471l4.425-13.451c1.859-5.65 9.851-5.65 11.71 0l4.425 13.451a13.29 13.29 0 0 0 8.471 8.471" style="fill:#0d8df5"/><path d="M473.541 298.045q-12.006 0-21.61-4.652-9.605-4.653-15.306-13.657-5.704-9.004-5.704-22.209 0-9.005 4.952-17.258 4.953-8.255 16.058-14.858 11.106-6.302 28.963-10.504 17.859-4.202 43.671-4.802v-11.706q0-17.709-7.654-26.862-7.654-9.155-22.36-9.155-7.803 0-16.358 4.053-8.553 4.051-15.757 8.103t-11.405 4.052q-2.701 0-4.652-1.5a12.1 12.1 0 0 1-3.152-3.602l-4.802-8.404q12.606-12.306 27.162-18.308 14.558-6.003 32.265-6.003 17.108 0 28.814 7.202 11.706 7.204 17.858 20.111 6.154 12.904 6.154 30.313v97.245h-11.707q-3.901 0-6.302-1.201-2.402-1.2-3.301-5.102l-3.002-14.106q-12.005 10.804-24.011 16.807t-28.814 6.003m7.804-18.908q13.506 0 23.711-5.403t19.509-15.007v-31.514q-15.607.3-28.213 2.251t-21.46 5.402q-8.855 3.451-13.506 8.704-4.652 5.253-4.652 12.756 0 12.005 7.053 17.408t17.558 5.403m60.328 16.507 3.301-23.41 22.511 4.801q2.4.3 3.602 1.951 1.2 1.652 1.2 4.352v12.306zm64.509 0v-152.17h15.908q6.003 0 7.203 5.703l2.102 16.507q9.903-11.105 22.209-17.858t28.214-6.753q16.807 0 28.063 7.203t17.107 20.259q5.853 13.056 5.853 30.164v96.945h-26.712v-96.945q0-17.107-7.954-26.712t-24.162-9.605q-11.704 0-22.06 5.704-10.355 5.702-19.058 15.606v111.952zm-21.61 0v-12.306q0-2.7 1.201-4.352 1.2-1.65 3.602-1.951l22.51-4.801 3.302 23.41zm39.319 0 3.301-23.41 22.511 4.801q2.401.3 3.601 1.951t1.201 4.352v12.306zm99.946 0 3.302-23.41 22.51 4.801q2.4.3 3.602 1.951 1.2 1.652 1.201 4.352v12.306zm-108.65-152.17-3.302 23.411-22.51-4.802q-2.402-.6-3.602-2.102-1.2-1.5-1.201-4.201v-12.306zm173.177 152.17V74.442h26.712v130.26h6.904q3.002 0 5.102-.9 2.102-.9 4.202-3.302l48.023-51.624q2.4-2.4 4.501-3.902 2.101-1.5 6.003-1.5h24.311l-56.125 59.728q-2.101 2.1-4.052 4.201-1.952 2.102-4.652 3.602 5.101 3.602 9.004 9.604l59.427 75.035h-24.011q-3.302 0-5.402-1.35t-4.503-4.052l-50.123-62.129q-2.1-3.301-4.352-4.202-2.251-.9-6.753-.901h-7.504v72.634zm94.845-127.859-6.303-9.905v-14.406h34.815l-24.311 23.411zm10.504 127.859-14.406-27.313 17.708 3.903zm-126.959 0v-12.306q0-2.7 1.201-4.352 1.201-1.65 3.602-1.951l22.51-4.801 3.301 23.41zm39.318 0 3.302-23.41 22.511 4.801q2.4.3 3.602 1.951 1.2 1.652 1.2 4.352v12.306zm-8.704-221.202-3.301 23.411-22.51-4.802q-2.401-.6-3.602-2.102-1.201-1.5-1.201-4.201V74.442zm117.355 69.032v12.306q0 2.701-1.2 4.201-1.201 1.502-3.602 2.102l-22.511 4.802-3.302-23.411zm-30.915 0-3.3 23.411-22.511-4.802q-2.402-.6-3.602-2.102-1.2-1.5-1.2-4.201v-12.306zm9.905 152.17 3.302-23.41 22.511 4.801q2.4.3 3.6 1.951t1.201 4.352v12.306zm69.641 0v-152.17h26.712v152.17zm-21.61 0v-12.306q0-2.7 1.201-4.352 1.2-1.65 3.602-1.951l22.509-4.801 3.302 23.41zm39.318 0 3.302-23.41 22.506 4.801q2.4.3 3.6 1.951t1.2 4.352v12.306zm-8.704-152.17-3.302 23.411-22.509-4.802q-2.402-.6-3.602-2.102-1.201-1.5-1.201-4.201v-12.306zm3.902-28.814q-7.505 0-13.206-5.703-5.703-5.702-5.703-13.205 0-7.804 5.703-13.507 5.702-5.703 13.206-5.702 7.803 0 13.506 5.702 5.702 5.703 5.702 13.507 0 7.503-5.702 13.205-5.703 5.703-13.506 5.703m51.32 102.347v-22.81h74.13v22.81zm116.16 78.637V74.442h26.71v221.202zm-21.61 0v-12.306q0-2.7 1.2-4.352 1.2-1.65 3.6-1.951l22.51-4.801 3.3 23.41zm39.32 0 3.3-23.41 22.51 4.801q2.4.3 3.6 1.951t1.2 4.352v12.306zm-8.71-221.202-3.3 23.411-22.51-4.802q-2.4-.6-3.6-2.102-1.2-1.5-1.2-4.201V74.442zm74.73 221.202V74.442h26.71v221.202zm-21.61 0v-12.306q0-2.7 1.2-4.352 1.2-1.65 3.6-1.951l22.51-4.801 3.3 23.41zm39.31 0 3.31-23.41 22.51 4.801q2.4.3 3.6 1.951t1.2 4.352v12.306zm-8.7-221.202-3.3 23.411-22.51-4.802q-2.4-.6-3.6-2.102-1.2-1.5-1.2-4.201V74.442zm74.74 221.202v-152.17h15.91c4 0 6.4 1.901 7.21 5.703l2.1 15.607q8.4-10.506 18.75-17.109c6.91-4.401 14.96-6.602 24.17-6.602 10.4 0 18.75 2.851 25.06 8.553q9.45 8.555 13.65 23.261c4.2-10.805 10.76-18.809 19.66-24.011 8.91-5.202 18.56-7.803 28.97-7.803 16.2 0 28.71 5.152 37.51 15.457 8.81 10.304 13.21 24.361 13.21 42.169v96.945h-26.71v-96.945c0-11.806-2.6-20.81-7.81-27.013-5.2-6.203-12.8-9.304-22.81-9.304-9.2 0-16.96 3.252-23.26 9.755q-9.45 9.754-9.45 26.562v96.945h-26.71v-96.945c0-12.206-2.46-21.31-7.36-27.313s-12.05-9.004-21.46-9.004c-6.6 0-12.7 1.801-18.31 5.403q-8.4 5.403-15.6 14.407v113.452zm-21.61 0v-12.306q0-2.7 1.2-4.352c.81-1.1 2.01-1.751 3.61-1.951l22.51-4.801 3.3 23.41zm39.32 0 3.3-23.41 22.51 4.801c1.61.2 2.8.851 3.61 1.951q1.2 1.652 1.2 4.352v12.306zm89.44 0 3.31-23.41 22.51 4.801q2.4.3 3.6 1.951t1.2 4.352v12.306zm-98.14-152.17-3.3 23.411-22.51-4.802c-1.6-.4-2.8-1.101-3.61-2.102q-1.2-1.5-1.2-4.201v-12.306zm188.19 152.17 3.3-23.41 22.51 4.801q2.4.3 3.6 1.951t1.2 4.352v12.306z" style="fill:#e9eaed;text-wrap-mode:nowrap"/></svg>

<?xml version="1.0" encoding="utf-8"?>
<svg version="1.1" id="Layer_2" xmlns="http://www.w3.org/2000/svg" x="0px" y="0px" viewBox="0 0 1580 378" style="enable-background:new 0 0 383 378;">
  <g>
    <g>
      <g>
        <path style="fill:#E8EAED;" d="M166.015,253.012c-0.004-2.759-1.148-5.393-3.161-7.279l-52.9-49.588 c-4.029-3.776-10.357-3.571-14.135,0.457c-3.777,4.029-3.572,10.357,0.457,14.135l45.143,42.316l-44.814,42.292 c-4.017,3.79-4.2,10.119-0.41,14.136c1.967,2.085,4.618,3.137,7.275,3.137c2.462,0,4.929-0.904,6.861-2.728l52.547-49.589 C164.884,258.408,166.019,255.77,166.015,253.012z"/>
        <path style="fill:#E8EAED;" d="M204.824,294.382h-39.412c-5.523,0-10,4.478-10,10s4.477,10,10,10h39.412c5.523,0,10-4.478,10-10 S210.347,294.382,204.824,294.382z"/>
        <path style="fill:#E8EAED;" d="M322.589,94.846c-5.523,0-10,4.477-10,10v133.412c0,8.808-5.812,16.191-13.588,18.132V123.175 c0-21.31-17.125-38.647-38.175-38.647H120.648v-1.823c0-10.282,7.911-18.647,17.635-18.647h124.424c5.523,0,10-4.477,10-10 s-4.477-10-10-10H138.283c-20.752,0-37.635,17.337-37.635,38.647v1.835c-20.844,0.244-37.729,17.477-37.729,38.636v0.894 c-20.054,1.392-35.947,18.141-35.947,38.542v166.441c0,21.311,17.337,38.647,38.647,38.647H228.03 c21.31,0,38.647-17.337,38.647-38.647v-12.13c18.282-2.859,32.324-18.896,32.324-38.193v-2.05 c18.856-2.08,33.588-18.514,33.588-38.421V104.846C332.589,99.323,328.112,94.846,322.589,94.846z M246.677,329.052 c0,10.282-8.365,18.647-18.647,18.647H65.619c-10.282,0-18.647-8.365-18.647-18.647V162.611c0-10.282,8.365-18.647,18.647-18.647 H228.03c10.282,0,18.647,8.365,18.647,18.647V329.052z M279.001,278.729c0,8.18-5.168,15.131-12.324,17.637V162.611 c0-21.31-17.337-38.647-38.647-38.647H82.919v-0.789c0-10.282,8.153-18.647,18.174-18.647h159.733 c10.021,0,18.175,8.365,18.175,18.647V278.729z"/>
      </g>
    </g>
    <path style="fill:#0D8DF5;" d="M341.34,36.46l9.513,3.129c6.9,2.27,6.9,12.031,0,14.301l-9.513,3.129 c-4.008,1.319-7.152,4.463-8.471,8.471l-3.65,11.095c-2.105,6.398-11.155,6.398-13.26,0l-3.65-11.095 c-1.319-4.008-4.463-7.152-8.471-8.471l-9.513-3.129c-6.9-2.27-6.9-12.031,0-14.301l9.513-3.129 c4.008-1.319,7.152-4.463,8.471-8.471l4.425-13.451c1.859-5.65,9.851-5.65,11.71,0l4.425,13.451 C334.188,31.998,337.332,35.142,341.34,36.46z"/>
  </g>
  <path d="M 473.541 298.045 C 465.537 298.045 458.334 296.494 451.931 293.393 C 445.528 290.291 440.426 285.739 436.625 279.736 C 432.822 273.734 430.921 266.33 430.921 257.527 C 430.921 251.524 432.572 245.771 435.873 240.269 C 439.175 234.766 444.528 229.813 451.931 225.411 C 459.335 221.21 468.989 217.708 480.894 214.907 C 492.8 212.105 507.357 210.505 524.565 210.105 L 524.565 198.399 C 524.565 186.593 522.013 177.639 516.911 171.537 C 511.809 165.434 504.355 162.382 494.551 162.382 C 489.349 162.382 483.896 163.733 478.193 166.435 C 472.491 169.136 467.239 171.837 462.436 174.538 C 457.634 177.239 453.832 178.59 451.031 178.59 C 449.23 178.59 447.68 178.09 446.379 177.09 C 445.078 176.089 444.027 174.888 443.227 173.488 L 438.425 165.084 C 446.829 156.88 455.883 150.778 465.587 146.776 C 475.292 142.774 486.047 140.773 497.852 140.773 C 509.257 140.773 518.862 143.174 526.666 147.975 C 534.47 152.778 540.422 159.481 544.524 168.086 C 548.626 176.689 550.678 186.793 550.678 198.399 L 550.678 295.644 L 538.971 295.644 C 536.37 295.644 534.27 295.244 532.669 294.443 C 531.068 293.643 529.967 291.943 529.368 289.341 L 526.366 275.235 C 518.362 282.438 510.359 288.04 502.355 292.042 C 494.351 296.044 484.747 298.045 473.541 298.045 Z M 481.345 279.137 C 490.349 279.137 498.253 277.336 505.056 273.734 C 511.859 270.132 518.362 265.13 524.565 258.727 L 524.565 227.213 C 514.16 227.413 504.756 228.163 496.352 229.464 C 487.948 230.764 480.795 232.565 474.892 234.866 C 468.989 237.167 464.487 240.068 461.386 243.57 C 458.284 247.072 456.734 251.324 456.734 256.326 C 456.734 264.33 459.085 270.132 463.787 273.734 C 468.489 277.336 474.342 279.137 481.345 279.137 Z M 541.673 295.644 L 544.974 272.234 L 567.485 277.035 C 569.085 277.235 570.286 277.886 571.087 278.986 C 571.887 280.087 572.287 281.538 572.287 283.338 L 572.287 295.644 L 541.673 295.644 Z M 606.182 295.644 L 606.182 143.474 L 622.09 143.474 C 626.092 143.474 628.493 145.375 629.293 149.177 L 631.395 165.684 C 637.997 158.28 645.4 152.328 653.604 147.826 C 661.808 143.324 671.213 141.073 681.818 141.073 C 693.023 141.073 702.377 143.474 709.881 148.276 C 717.384 153.078 723.087 159.832 726.988 168.535 C 730.89 177.239 732.841 187.294 732.841 198.699 L 732.841 295.644 L 706.129 295.644 L 706.129 198.699 C 706.129 187.294 703.478 178.39 698.175 171.987 C 692.873 165.583 684.819 162.382 674.013 162.382 C 666.21 162.382 658.857 164.283 651.953 168.086 C 645.05 171.887 638.697 177.089 632.895 183.692 L 632.895 295.644 L 606.182 295.644 Z M 584.572 295.644 L 584.572 283.338 C 584.572 281.538 584.973 280.087 585.773 278.986 C 586.573 277.886 587.774 277.235 589.375 277.035 L 611.885 272.234 L 615.187 295.644 L 584.572 295.644 Z M 623.891 295.644 L 627.192 272.234 L 649.703 277.035 C 651.304 277.235 652.504 277.886 653.304 278.986 C 654.105 280.087 654.505 281.538 654.505 283.338 L 654.505 295.644 L 623.891 295.644 Z M 723.837 295.644 L 727.139 272.234 L 749.649 277.035 C 751.249 277.235 752.45 277.886 753.251 278.986 C 754.051 280.087 754.452 281.538 754.452 283.338 L 754.452 295.644 L 723.837 295.644 Z M 615.187 143.474 L 611.885 166.885 L 589.375 162.083 C 587.774 161.683 586.573 160.982 585.773 159.981 C 584.973 158.981 584.572 157.581 584.572 155.78 L 584.572 143.474 L 615.187 143.474 Z M 788.364 295.644 L 788.364 74.442 L 815.076 74.442 L 815.076 204.702 L 821.98 204.702 C 823.981 204.702 825.682 204.402 827.082 203.802 C 828.483 203.202 829.884 202.101 831.284 200.5 L 879.307 148.876 C 880.907 147.276 882.408 145.975 883.808 144.974 C 885.209 143.974 887.21 143.474 889.811 143.474 L 914.122 143.474 L 857.997 203.202 C 856.596 204.602 855.246 206.002 853.945 207.403 C 852.644 208.804 851.093 210.005 849.293 211.005 C 852.694 213.406 855.695 216.608 858.297 220.609 L 917.724 295.644 L 893.713 295.644 C 891.512 295.644 889.711 295.194 888.311 294.294 C 886.91 293.393 885.409 292.043 883.808 290.242 L 833.685 228.113 C 832.285 225.912 830.834 224.512 829.333 223.911 C 827.832 223.311 825.581 223.01 822.58 223.01 L 815.076 223.01 L 815.076 295.644 L 788.364 295.644 Z M 883.209 167.785 L 876.906 157.88 L 876.906 143.474 L 911.721 143.474 L 887.41 166.885 L 883.209 167.785 Z M 893.713 295.644 L 879.307 268.331 L 897.015 272.234 L 893.713 295.644 Z M 766.754 295.644 L 766.754 283.338 C 766.754 281.538 767.154 280.087 767.955 278.986 C 768.756 277.886 769.956 277.235 771.557 277.035 L 794.067 272.234 L 797.368 295.644 L 766.754 295.644 Z M 806.072 295.644 L 809.374 272.234 L 831.885 277.035 C 833.485 277.235 834.686 277.886 835.487 278.986 C 836.287 280.087 836.687 281.538 836.687 283.338 L 836.687 295.644 L 806.072 295.644 Z M 797.368 74.442 L 794.067 97.853 L 771.557 93.051 C 769.956 92.651 768.756 91.95 767.955 90.949 C 767.154 89.949 766.754 88.549 766.754 86.748 L 766.754 74.442 L 797.368 74.442 Z M 914.723 143.474 L 914.723 155.78 C 914.723 157.581 914.323 158.981 913.523 159.981 C 912.722 160.982 911.522 161.683 909.921 162.083 L 887.41 166.885 L 884.108 143.474 L 914.723 143.474 Z M 883.808 143.474 L 880.508 166.885 L 857.997 162.083 C 856.396 161.683 855.195 160.982 854.395 159.981 C 853.595 158.981 853.195 157.581 853.195 155.78 L 853.195 143.474 L 883.808 143.474 Z M 893.713 295.644 L 897.015 272.234 L 919.526 277.035 C 921.126 277.235 922.327 277.886 923.126 278.986 C 923.927 280.087 924.327 281.538 924.327 283.338 L 924.327 295.644 L 893.713 295.644 Z M 963.354 295.644 L 963.354 143.474 L 990.066 143.474 L 990.066 295.644 L 963.354 295.644 Z M 941.744 295.644 L 941.744 283.338 C 941.744 281.538 942.144 280.087 942.945 278.986 C 943.745 277.886 944.946 277.235 946.547 277.035 L 969.056 272.234 L 972.358 295.644 L 941.744 295.644 Z M 981.062 295.644 L 984.364 272.234 L 1006.87 277.035 C 1008.47 277.235 1009.67 277.886 1010.47 278.986 C 1011.27 280.087 1011.67 281.538 1011.67 283.338 L 1011.67 295.644 L 981.062 295.644 Z M 972.358 143.474 L 969.056 166.885 L 946.547 162.083 C 944.946 161.683 943.745 160.982 942.945 159.981 C 942.144 158.981 941.744 157.581 941.744 155.78 L 941.744 143.474 L 972.358 143.474 Z M 976.26 114.66 C 971.257 114.66 966.855 112.759 963.054 108.957 C 959.252 105.156 957.351 100.754 957.351 95.752 C 957.351 90.549 959.252 86.047 963.054 82.245 C 966.855 78.443 971.257 76.543 976.26 76.543 C 981.462 76.543 985.964 78.443 989.766 82.245 C 993.568 86.047 995.468 90.549 995.468 95.752 C 995.468 100.754 993.568 105.156 989.766 108.957 C 985.964 112.759 981.462 114.66 976.26 114.66 Z M 1027.58 217.007 L 1027.58 194.197 L 1101.71 194.197 L 1101.71 217.007 L 1027.58 217.007 Z M 1143.74 295.644 L 1143.74 74.442 L 1170.45 74.442 L 1170.45 295.644 L 1143.74 295.644 Z M 1122.13 295.644 L 1122.13 283.338 C 1122.13 281.538 1122.53 280.087 1123.33 278.986 C 1124.13 277.886 1125.33 277.235 1126.93 277.035 L 1149.44 272.234 L 1152.74 295.644 L 1122.13 295.644 Z M 1161.45 295.644 L 1164.75 272.234 L 1187.26 277.035 C 1188.86 277.235 1190.06 277.886 1190.86 278.986 C 1191.66 280.087 1192.06 281.538 1192.06 283.338 L 1192.06 295.644 L 1161.45 295.644 Z M 1152.74 74.442 L 1149.44 97.853 L 1126.93 93.051 C 1125.33 92.651 1124.13 91.95 1123.33 90.949 C 1122.53 89.949 1122.13 88.549 1122.13 86.748 L 1122.13 74.442 L 1152.74 74.442 Z M 1227.47 295.644 L 1227.47 74.442 L 1254.18 74.442 L 1254.18 295.644 L 1227.47 295.644 Z M 1205.86 295.644 L 1205.86 283.338 C 1205.86 281.538 1206.26 280.087 1207.06 278.986 C 1207.86 277.886 1209.06 277.235 1210.66 277.035 L 1233.17 272.234 L 1236.47 295.644 L 1205.86 295.644 Z M 1245.17 295.644 L 1248.48 272.234 L 1270.99 277.035 C 1272.59 277.235 1273.79 277.886 1274.59 278.986 C 1275.39 280.087 1275.79 281.538 1275.79 283.338 L 1275.79 295.644 L 1245.17 295.644 Z M 1236.47 74.442 L 1233.17 97.853 L 1210.66 93.051 C 1209.06 92.651 1207.86 91.95 1207.06 90.949 C 1206.26 89.949 1205.86 88.549 1205.86 86.748 L 1205.86 74.442 L 1236.47 74.442 Z M 1311.21 295.644 L 1311.21 143.474 L 1327.12 143.474 C 1331.12 143.474 1333.52 145.375 1334.33 149.177 L 1336.43 164.784 C 1342.03 157.78 1348.28 152.077 1355.18 147.675 C 1362.09 143.274 1370.14 141.073 1379.35 141.073 C 1389.75 141.073 1398.1 143.924 1404.41 149.626 C 1410.71 155.329 1415.26 163.083 1418.06 172.887 C 1422.26 162.082 1428.82 154.078 1437.72 148.876 C 1446.63 143.674 1456.28 141.073 1466.69 141.073 C 1482.89 141.073 1495.4 146.225 1504.2 156.53 C 1513.01 166.834 1517.41 180.891 1517.41 198.699 L 1517.41 295.644 L 1490.7 295.644 L 1490.7 198.699 C 1490.7 186.893 1488.1 177.889 1482.89 171.686 C 1477.69 165.483 1470.09 162.382 1460.08 162.382 C 1450.88 162.382 1443.12 165.634 1436.82 172.137 C 1430.52 178.64 1427.37 187.494 1427.37 198.699 L 1427.37 295.644 L 1400.66 295.644 L 1400.66 198.699 C 1400.66 186.493 1398.2 177.389 1393.3 171.386 C 1388.4 165.383 1381.25 162.382 1371.84 162.382 C 1365.24 162.382 1359.14 164.183 1353.53 167.785 C 1347.93 171.387 1342.73 176.189 1337.93 182.192 L 1337.93 295.644 L 1311.21 295.644 Z M 1289.6 295.644 L 1289.6 283.338 C 1289.6 281.538 1290 280.087 1290.8 278.986 C 1291.61 277.886 1292.81 277.235 1294.41 277.035 L 1316.92 272.234 L 1320.22 295.644 L 1289.6 295.644 Z M 1328.92 295.644 L 1332.22 272.234 L 1354.73 277.035 C 1356.34 277.235 1357.53 277.886 1358.34 278.986 C 1359.14 280.087 1359.54 281.538 1359.54 283.338 L 1359.54 295.644 L 1328.92 295.644 Z M 1418.36 295.644 L 1421.67 272.234 L 1444.18 277.035 C 1445.78 277.235 1446.98 277.886 1447.78 278.986 C 1448.58 280.087 1448.98 281.538 1448.98 283.338 L 1448.98 295.644 L 1418.36 295.644 Z M 1320.22 143.474 L 1316.92 166.885 L 1294.41 162.083 C 1292.81 161.683 1291.61 160.982 1290.8 159.981 C 1290 158.981 1289.6 157.581 1289.6 155.78 L 1289.6 143.474 L 1320.22 143.474 Z M 1508.41 295.644 L 1511.71 272.234 L 1534.22 277.035 C 1535.82 277.235 1537.02 277.886 1537.82 278.986 C 1538.62 280.087 1539.02 281.538 1539.02 283.338 L 1539.02 295.644 L 1508.41 295.644 Z" style="fill: rgb(233, 234, 237); text-wrap-mode: nowrap;"/>
</svg>
